X: 136
T:Mazurka
M:3/4
L:1/8
R:Mazurka
O:French, composer unknown to transcriber
Z:Steve Mansfield 12/3/00
K:G
G>A |: B2d2g>f | e2d2c>B | A>B c>d d>e | d3 GG>A | B2d2g>f | e2d2d>c |
A>B c>A F>A |1 G3 FG>A :|2 G4F2 |: E>G B>d ^c>d | D>F A>c B>A | E>F G>A B>c |
A>F D2G>F | E>G B>d ^c>d | D>F A>c B>A | E>F G>A B>^c |1 d4G>F :|2 d4 ||

